X:1
T:Title
%%score { ( 1 3 ) | ( 2 4 ) }
L:1/8
M:4/4
K:Ab
V:1 treble nm="Grand Piano"
V:3 treble 
V:2 bass 
V:4 bass 
V:1
 z4 z2[Q:1/4=100] [A,C][B,D] | [CE][CE][CE][CE] EEFG | [CA][CA][DA][DA] [CA]2 [EA]B | cccc ecBA | %4
 B6 cd | eecB AAGA |[M:3/4] [FB][FB] [FB][Fc] [Fd]2 |[M:1/4] [DF][DF] |[M:4/4] GGGF EdcB | %9
[M:3/4] [A,CA]6 |[M:1/4] ec |[M:4/4] d6 z2 |[M:3/4] c6 |[M:1/4] [Gc][GB] | %14
[M:4/4] AAAA [=DA][DF][Dc][D_c] | B6 z2 |[M:3/4] cc cc c2 |[M:1/4] B[Ac] | %18
[M:9/8] [Ad][Ad][Ad] [Ad] [Ad]2- [Ad][A=d][Ad] |[M:4/4] [Ae][Ec][FB][Fd] cBAG |[M:3/4] [CA]6 |] %21
V:2
 z4 z2 [A,,E,][A,,E,] | [A,,A,][A,,A,][A,,A,][A,,A,] [E,G,D][E,G,D][E,A,D][E,B,D] | %2
 [A,,A,][A,,A,][A,,F,][A,,F,] [A,,E,]2 [C,A,][E,G,E] | %3
 [A,E][A,E][A,E][A,E] [A,CE][A,E][G,B,E][F,B,=D] | [E,G,E]6[K:treble] [A,E][A,B,E] | %5
 [A,CA][A,CA][A,EA][K:bass][A,DE] [A,CE][A,CE][B,DE][A,CE] | %6
[M:3/4] [D,D][D,D] [D,D][C,=A,] [B,,B,]2 |[M:1/4] [B,,B,][B,,B,] | %8
[M:4/4] [E,B,D][E,B,D][E,B,D][E,A,D] [E,G,D][E,F][E,F,E][E,G,D] |[M:3/4] A,,6 |[M:1/4] CA, | %11
[M:4/4] B,6 z2 |[M:3/4][K:treble] [A,EA]2 [A,E][K:bass][A,E] [A,E]2 |[M:1/4] [=E,C][E,C] | %14
[M:4/4] [F,CF][F,CF][F,CF][F,CE] [B,,B,][B,,B,][B,,A,][B,,A,] | [G,E]2 z2 z4 | %16
[M:3/4] [A,E][A,E] [A,E][A,E] [A,E]2 |[M:1/4] [F,B,E][_G,E] | %18
[M:9/8] [F,D][F,D][F,D] [F,D] [F,D]2- [F,D][=E,_C][E,C] | %19
[M:4/4] [E,C][E,A,][D,A,][B,,B,] [E,A,E][E,DE][E,CE][E,B,D] |[M:3/4] [A,,A,]6 |] %21
V:3
 x8 | x8 | x8 | x8 | x8 | x8 |[M:3/4] x6 |[M:1/4] x2 |[M:4/4] x8 |[M:3/4] x6 |[M:1/4] x2 | %11
[M:4/4] z2 GG G2 [Gd][GB] |[M:3/4] z2 AA A2 |[M:1/4] x2 |[M:4/4] x8 | z2 GF E2 [A,EA]B | %16
[M:3/4] x6 |[M:1/4] x2 |[M:9/8] x9 |[M:4/4] x8 |[M:3/4] x6 |] %21
V:4
 x8 | x8 | x8 | x8 | x6[K:treble] x2 | x3[K:bass] x5 |[M:3/4] x6 |[M:1/4] x2 |[M:4/4] x8 | %9
[M:3/4] x6 |[M:1/4] x2 |[M:4/4] z2 E,E, E,2 [E,B,][E,E] |[M:3/4][K:treble] x3[K:bass] x3 | %13
[M:1/4] x2 |[M:4/4] x8 | E,2- [E,-B,][E,-A,] [E,G,]2 C,[E,G,E] |[M:3/4] x6 |[M:1/4] x2 | %18
[M:9/8] x9 |[M:4/4] x8 |[M:3/4] x6 |] %21

